Yosa-Max-Dark/actions/22x22/draw-circle.svg

<?xml version="1.0" encoding="UTF-8"?>
<svg id="svg4" version="1.1" viewBox="0 0 22 22" xmlns="http://www.w3.org/2000/svg">
 <path id="path2" d="m11 3c-4.432 0-8 3.568-8 8s3.568 8 8 8 8-3.568 8-8-3.568-8-8-8zm0 1.2714844c3.727804 0 6.728516 3.0007108 6.728516 6.7285156 0 3.727804-3.000712 6.728516-6.728516 6.728516-3.7278048 0-6.7285156-3.000712-6.7285156-6.728516 0-3.7278048 3.0007108-6.7285156 6.7285156-6.7285156z" style="fill:#dfdfdf"/>
</svg>

<?xml version="1.0" encoding="UTF-8" standalone="no"?>
<svg
   xmlns:dc="http://purl.org/dc/elements/1.1/"
   xmlns:cc="http://creativecommons.org/ns#"
   xmlns:rdf="http://www.w3.org/1999/02/22-rdf-syntax-ns#"
   xmlns:svg="http://www.w3.org/2000/svg"
   xmlns="http://www.w3.org/2000/svg"
   id="svg4"
   version="1.1"
   viewBox="0 0 22 22">
  <metadata
     id="metadata10">
    <rdf:RDF>
      <cc:Work
         rdf:about="">
        <dc:format>image/svg+xml</dc:format>
        <dc:type
           rdf:resource="http://purl.org/dc/dcmitype/StillImage" />
        <dc:title></dc:title>
      </cc:Work>
    </rdf:RDF>
  </metadata>
  <defs
     id="defs8" />
  <path
     id="path2"
     d="M 11 3 C 6.568 3 3 6.568 3 11 C 3 15.432 6.568 19 11 19 C 15.432 19 19 15.432 19 11 C 19 6.568 15.432 3 11 3 z M 11 4.2714844 C 14.727804 4.2714844 17.728516 7.2721952 17.728516 11 C 17.728516 14.727804 14.727804 17.728516 11 17.728516 C 7.2721952 17.728516 4.2714844 14.727804 4.2714844 11 C 4.2714844 7.2721952 7.2721952 4.2714844 11 4.2714844 z "
     style="fill:#dfdfdf" />
</svg>
